X:86
T:Downfall of Paris.2voices. JJo.086
S:J.Jones MS,1801,N.Shrops.
N:Uncertain whether the final sections are repeated as no repeat sign at end
N:of the last bar.
A:N Shropshire
Z:Neil Brookes 2006
M:2/4
L:1/8
Q:1/2=50
K:C
“Allegretto”
[V:1]cc/d/ cc/d/|cc/d/ f/e/d/c/|dd/e/ dd/e/|dd/e/ g/f/e/d/|!
[V:2]EE/F/ EE/F/|EE/F/ d/c/B/A/|BB/c/ BB/c/|BB/c/ e/d/c/B/|!
[V:1]ee/f/ ee/f/|ee/f/ a/g/f/e/|dd/e/ dd|d2 c/B/A/G/|!
[V:2]cc/d/ cc/d/|cc/d/ f/e/d/c/|BB/c/BB|d2z2|!
[V:1]cc/d/ cc/d/|cc/d/ f/e/d/c/|dd/e/ dd/e/|dd/e/ g/f/e/d/|!
[V:2]EE/F/ EE/F/|EE/F/ d/c/B/A/|BB/c/ BB/c/|BB/c/ e/d/c/B/|!
[V:1]ee/f/ gf|ee/f/ gf|ee/c/ dd/B/|c2cz||!
[V:2]ee/f/ gf|ee/f/ gf|cc/E/ FF/D/|E2Ez||!
[V:1]g4|geag|ff/e/ ff/e/|ff/e/ f2|!
[V:2]e4|ecfe|dd/c/ dd/c/|dd/c/ d2|!
[V:1]f2ff|fd gf|ee/d/ ee/d/|ee/d/e2|!
[V:2]d2dd|dB ed|cc/B/ cc/B/|cc/B/c2|!
[V:1]cc/d/ cc/d/|cc/d/ f/e/d/c/|dd/e/ dd/e/|dd/e/ g/f/e/d/|!
[V:2]EE/F/ EE/F/|EE/F/ GF/E/|BB/c/ BB/c/|BB/c/ e/d/c/B/|!
[V:1]ee/f/ gf|ee/f/ gf|ee/c/ dd/B/|cccz::!
[V:2]cc/d/ ed|cc/d/ ed|cc/E/ FF/D/|EEEz::!
[V:1]g/a/b/c’/ b/a/g/f/|e/f/g/a/ g/f/e/d/|cc/c/ dd/d/|ee/e/ d2|!
[V:2]g/a/b/c’/ b/a/g/f/|e/f/g/a/ g/f/e/d/|EE/E/ FF/F/|cc/B/ B2|!
[V:1]g/a/b/c’/ b/a/g/f/|e/f/g/a/ g/f/e/d/|cd/d/ ed|ccc2||!
[V:2]g/a/b/c’/ b/a/g/f/|e/f/g/a/ g/f/e/d/|EF/F/ GF|EEE2||!
[V:1].B.c.d.e| .f.e.d.c|.B.c.d.e| .f.e.d z|!
[V:2].G.A.B.c|.d.c.B.A|.G.A.B.c|.d.c.B z|!
[V:1]g/a/b/c’/ b/a/g/f/|e/f/g/a/ g/f/e/d/|cd/d/ ed|ccc2|]
[V:2]g/a/b/c’/ b/a/g/f/|e/f/g/a/ g/f/e/d/|EF/F/ GF|EEE2|]

